public/recycle.svg

<svg xmlns="http://www.w3.org/2000/svg" viewBox="0 0 512 512" style="height: 512px; width: 512px;"><path d="M0 0h512v512H0z" fill="#000" fill-opacity="1"></path><g class="" transform="translate(0,0)" style=""><path d="M255.875 19.75c-15.54.336-30.444 4.193-44.97 10.5l22.47 42c7.42-2.652 15.023-4.442 22.5-4.5 25.633 0 52.754 13.658 73.47 49.47l16.624 28.874 20.217-11.656 43.407 75.187-53.5 30.844 107.812 62.186V178.312l-33.062 19.063-59.5-104.156c-27.476-47.506-71.07-73.848-115.47-73.47zm-75.22 57.844L72.813 139.78l32.282 18.595-56.156 98.313c-25.153 43.508-26.934 92.827-6 131.968 8.675 16.22 21.838 29.508 37.5 40.47l24-40.47c-8.042-6.36-14.9-13.912-19.5-22.5-12.51-23.402-13.322-54.64 4.5-85.47l13.624-23.436-19.687-11.375 43.313-75.03 53.968 31.093V77.594zm255.157 267.562c-1.564 7.687-3.835 14.362-7.5 21-12.83 23.206-38 40.5-77.968 40.5h-24.438v22.906h-86.78V367.5L131.31 429.656l107.813 62.188v-37.22h111.22c54.52 0 98.506-25.648 119.967-64.468 7.566-13.695 11.738-29.242 13.5-45h-48z" fill="#fff" fill-opacity="1"></path></g></svg>

<?xml version="1.0" encoding="UTF-8" standalone="no"?>
<!DOCTYPE svg PUBLIC "-//W3C//DTD SVG 1.1//EN" "http://www.w3.org/Graphics/SVG/1.1/DTD/svg11.dtd">
<svg width="100%" height="100%" viewBox="0 0 512 512" version="1.1" xmlns="http://www.w3.org/2000/svg" xmlns:xlink="http://www.w3.org/1999/xlink" xml:space="preserve" xmlns:serif="http://www.serif.com/" style="fill-rule:evenodd;clip-rule:evenodd;stroke-linejoin:round;stroke-miterlimit:2;">
    <g>
        <path d="M255.875,19.75C240.335,20.086 225.431,23.943 210.905,30.25L233.375,72.25C240.795,69.598 248.398,67.808 255.875,67.75C281.508,67.75 308.629,81.408 329.345,117.22L345.969,146.094L366.186,134.438L409.593,209.625L356.093,240.469L463.905,302.655L463.905,178.312L430.843,197.375L371.343,93.219C343.867,45.713 300.273,19.371 255.873,19.749L255.875,19.75ZM180.655,77.594L72.813,139.78L105.095,158.375L48.939,256.688C23.786,300.196 22.005,349.515 42.939,388.656C51.614,404.876 64.777,418.164 80.439,429.126L104.439,388.656C96.397,382.296 89.539,374.744 84.939,366.156C72.429,342.754 71.617,311.516 89.439,280.686L103.063,257.25L83.376,245.875L126.689,170.845L180.657,201.938L180.657,77.594L180.655,77.594ZM435.812,345.156C434.248,352.843 431.977,359.518 428.312,366.156C415.482,389.362 390.312,406.656 350.344,406.656L325.906,406.656L325.906,429.562L239.126,429.562L239.126,367.5L131.31,429.656L239.123,491.844L239.123,454.624L350.343,454.624C404.863,454.624 448.849,428.976 470.31,390.156C477.876,376.461 482.048,360.914 483.81,345.156L435.81,345.156L435.812,345.156Z" style="fill:white;fill-rule:nonzero;"/>
    </g>
</svg>
